X:108
T:Findlay J. MacDonald 
C:Joe Buchanan's Scottish Tome - Page 133.0
I:133 0
C:Bobby MacLeod
R:Jig
Z:Carl Allison
L:1/8
M:6/8
K:A
a | "A"c>dB c<Ac | e3 "E7"e>fg | "A"agf edc | "G"Bd=G "E7"B>cd |
"A"c>dB c>Ac | efg "E7"aef | "G"=gdB "E7"=GAB | "A"AAA A2 :|
f/g/ | "A"aaa A3 | efc e3 | "A7"c3 "D7"dcd | "G"B=GB =gfg |
"A"a>aa A>AA | efc a>ef | "G"=gdB "E7"=GAB |  "A"AAA A2 :|
a | "A"e>ee "A7"c>de | "D"f>ff d>ef | "A"e>ee c>de | "G"B>cd =G>AB |
"A"cde "Bm"def | "A7"ef=g "D7"fga | "G"=gdB "E7"=GAB | "A"AAA A2 :|
f/g/ |"A" aaa aec | "A"e>fg aec | "A7"aAa "D"fed | "A"edc "E7"dcB |
"A"cde "Bm"def | "A7"ef=g "D"fga | "G"=gdB "E7"=GAB | "A"AAA A2 :|

